src/pos-icons/strategy.svg

<svg height="24" viewBox="0 0 24 24" width="24" xmlns="http://www.w3.org/2000/svg"><path d="m6.91 5.5 2.3 2.29-1.42 1.42-2.29-2.3-2.29 2.3-1.42-1.42 2.3-2.29-2.3-2.29 1.42-1.42 2.29 2.3 2.29-2.3 1.42 1.42m13 13-1.42-1.42-2.29 2.3-2.29-2.3-1.42 1.42 2.3 2.29-2.3 2.29 1.42 1.42 2.29-2.3 2.29 2.3 1.42-1.42-2.3-2.29m.49-11.67-3.22 4.17-1.58-1.27 1.17-1.5a9.08 9.08 0 0 0 -6.66 5.62 4.5 4.5 0 1 1 -2.61-.85 4 4 0 0 1 .78.08 11.27 11.27 0 0 1 8.15-6.82l-1.43-1.08 1.27-1.58m-6.27 13.9a2.5 2.5 0 1 0 -2.5 2.5 2.5 2.5 0 0 0 2.5-2.5z"/></svg>

<?xml version="1.0" encoding="UTF-8"?><!DOCTYPE svg PUBLIC "-//W3C//DTD SVG 1.1//EN" "http://www.w3.org/Graphics/SVG/1.1/DTD/svg11.dtd"><svg xmlns="http://www.w3.org/2000/svg" xmlns:xlink="http://www.w3.org/1999/xlink" version="1.1" id="mdi-strategy" width="24" height="24" viewBox="0 0 24 24"><path d="M6.91 5.5L9.21 7.79L7.79 9.21L5.5 6.91L3.21 9.21L1.79 7.79L4.09 5.5L1.79 3.21L3.21 1.79L5.5 4.09L7.79 1.79L9.21 3.21M22.21 16.21L20.79 14.79L18.5 17.09L16.21 14.79L14.79 16.21L17.09 18.5L14.79 20.79L16.21 22.21L18.5 19.91L20.79 22.21L22.21 20.79L19.91 18.5M20.4 6.83L17.18 11L15.6 9.73L16.77 8.23A9.08 9.08 0 0 0 10.11 13.85A4.5 4.5 0 1 1 7.5 13A4 4 0 0 1 8.28 13.08A11.27 11.27 0 0 1 16.43 6.26L15 5.18L16.27 3.6M10 17.5A2.5 2.5 0 1 0 7.5 20A2.5 2.5 0 0 0 10 17.5Z" /></svg>
